X:4661
T:Easyclub Reel
R:Reel
S:(Declan Folan)
H:
N:
D:Unknown fleadh tape
Z:Adrian Scahill
M:4/4
L:1/8
K:A
~A3c BFBd|ceef eAce|~f3g afea|{b}afec BdcB|\
~A3c BFBd|cee^d eAce|~f3g afec|dBGB A4:||\
f2af dfaf|(3eee ae ceae|f2af defg|afec AB{c}~B2|\
AB{c}BA BcdB|cdec defg|agaf ~f2ec|dBGB A4:||
